fwb/public/profilebanner-sm.svg

<svg width="287" height="120" viewBox="0 0 287 120" fill="none" xmlns="http://www.w3.org/2000/svg">
<g clip-path="url(#clip0_53_1041)">
<rect width="287" height="120" rx="10.0043" fill="#8E94E9"/>
<g clip-path="url(#clip1_53_1041)">
<circle cx="123.903" cy="123.903" r="123.61" transform="matrix(-0.355519 -0.934669 -0.934669 0.355519 473.839 239.621)" stroke="url(#paint0_linear_53_1041)" stroke-width="0.585572"/>
<circle cx="88.5023" cy="88.5023" r="88.2095" transform="matrix(-0.355519 -0.934669 -0.934669 0.355519 428.09 219.191)" stroke="url(#paint1_linear_53_1041)" stroke-width="0.585572"/>
</g>
<path d="M209.682 26.2723L211.474 36.8738C211.648 37.9044 210.954 38.881 209.924 39.0553L204.86 39.9111L205.465 43.4917L202.509 40.3086L190.517 42.3358C189.486 42.51 188.509 41.8157 188.335 40.7851L186.543 30.1837C186.369 29.1531 187.063 28.1764 188.094 28.0022L207.501 24.7217C208.531 24.5475 209.508 25.2417 209.682 26.2723Z" fill="#F2F2F2"/>
<path d="M193.905 37.0067C193.603 37.063 193.328 37.0527 193.08 36.9759C192.835 36.8982 192.6 36.7614 192.375 36.5652L192.747 36.0213C192.894 36.1665 193.054 36.2763 193.228 36.3506C193.402 36.4249 193.598 36.4417 193.816 36.401C194.047 36.3581 194.22 36.2744 194.336 36.15C194.457 36.0248 194.5 35.871 194.466 35.6884C194.44 35.5495 194.383 35.4431 194.295 35.3691C194.208 35.2951 194.099 35.2414 193.97 35.2081C193.843 35.17 193.705 35.1425 193.554 35.1255C193.406 35.1038 193.255 35.0784 193.102 35.0495C192.952 35.0159 192.809 34.9666 192.674 34.9015C192.543 34.8356 192.428 34.7399 192.331 34.6143C192.234 34.4887 192.165 34.3188 192.125 34.1045C192.079 33.8584 192.1 33.6389 192.187 33.446C192.277 33.2484 192.417 33.0848 192.607 32.955C192.796 32.8252 193.018 32.7366 193.272 32.6892C193.518 32.6433 193.756 32.6543 193.986 32.7222C194.217 32.7901 194.415 32.8949 194.581 33.0364L194.208 33.5803C194.064 33.4676 193.921 33.3854 193.78 33.3336C193.643 33.2812 193.505 33.2679 193.366 33.2938C193.144 33.3353 192.981 33.4108 192.878 33.5203C192.775 33.6259 192.739 33.764 192.771 33.9347C192.795 34.0617 192.85 34.1582 192.936 34.2242C193.025 34.2856 193.135 34.3329 193.264 34.3663C193.393 34.3957 193.531 34.4212 193.679 34.4429C193.831 34.4639 193.984 34.4908 194.138 34.5237C194.292 34.5566 194.437 34.6095 194.574 34.6826C194.71 34.7516 194.827 34.8529 194.926 34.9865C195.029 35.1192 195.101 35.2968 195.143 35.519C195.212 35.8921 195.134 36.2126 194.909 36.4805C194.688 36.7477 194.353 36.9231 193.905 37.0067ZM193.909 37.5603L192.91 32.2023L193.386 32.1134L194.386 37.4715L193.909 37.5603ZM197.381 36.3581C197.08 36.4144 196.805 36.4041 196.556 36.3272C196.312 36.2496 196.077 36.1128 195.851 35.9166L196.224 35.3727C196.37 35.5179 196.53 35.6277 196.705 35.702C196.879 35.7763 197.075 35.7931 197.293 35.7524C197.523 35.7094 197.697 35.6258 197.813 35.5014C197.933 35.3762 197.977 35.2224 197.942 35.0398C197.917 34.9009 197.86 34.7945 197.772 34.7205C197.684 34.6465 197.576 34.5928 197.446 34.5595C197.32 34.5214 197.181 34.4939 197.03 34.4769C196.883 34.4551 196.732 34.4298 196.579 34.4009C196.429 34.3673 196.286 34.3179 196.151 34.2528C196.019 34.187 195.905 34.0913 195.808 33.9657C195.71 33.8401 195.642 33.6702 195.602 33.4558C195.556 33.2098 195.576 32.9903 195.664 32.7974C195.754 32.5998 195.894 32.4361 196.083 32.3064C196.273 32.1766 196.494 32.088 196.748 32.0406C196.994 31.9947 197.233 32.0057 197.463 32.0736C197.693 32.1415 197.892 32.2462 198.058 32.3878L197.685 32.9317C197.54 32.819 197.398 32.7367 197.257 32.685C197.12 32.6326 196.982 32.6193 196.843 32.6452C196.62 32.6867 196.458 32.7622 196.355 32.8717C196.252 32.9773 196.216 33.1154 196.248 33.286C196.271 33.4131 196.326 33.5096 196.413 33.5756C196.502 33.637 196.611 33.6843 196.741 33.7177C196.87 33.7471 197.008 33.7726 197.156 33.7943C197.307 33.8153 197.46 33.8422 197.614 33.8751C197.768 33.908 197.914 33.9609 198.051 34.034C198.187 34.103 198.304 34.2043 198.403 34.3379C198.506 34.4706 198.578 34.6482 198.619 34.8704C198.689 35.2435 198.611 35.564 198.386 35.8319C198.165 36.099 197.83 36.2745 197.381 36.3581ZM197.386 36.9117L196.386 31.5537L196.863 31.4648L197.862 36.8229L197.386 36.9117ZM200.858 35.7095C200.556 35.7658 200.281 35.7555 200.033 35.6786C199.788 35.601 199.553 35.4642 199.328 35.268L199.701 34.7241C199.847 34.8693 200.007 34.9791 200.181 35.0534C200.355 35.1277 200.551 35.1445 200.77 35.1038C201 35.0608 201.173 34.9772 201.29 34.8528C201.41 34.7276 201.453 34.5738 201.419 34.3912C201.393 34.2523 201.336 34.1458 201.249 34.0719C201.161 33.9979 201.052 33.9442 200.923 33.9108C200.797 33.8728 200.658 33.8453 200.507 33.8283C200.359 33.8065 200.209 33.7812 200.056 33.7523C199.905 33.7187 199.763 33.6693 199.627 33.6042C199.496 33.5384 199.382 33.4427 199.284 33.3171C199.187 33.1915 199.118 33.0216 199.078 32.8072C199.032 32.5612 199.053 32.3417 199.14 32.1488C199.231 31.9512 199.371 31.7875 199.56 31.6578C199.749 31.528 199.971 31.4394 200.225 31.392C200.471 31.3461 200.709 31.3571 200.94 31.425C201.17 31.4929 201.368 31.5976 201.534 31.7392L201.161 32.2831C201.017 32.1704 200.874 32.0881 200.733 32.0364C200.596 31.984 200.458 31.9707 200.319 31.9966C200.097 32.0381 199.935 32.1136 199.832 32.2231C199.728 32.3287 199.692 32.4668 199.724 32.6374C199.748 32.7644 199.803 32.861 199.889 32.927C199.979 32.9884 200.088 33.0357 200.218 33.0691C200.346 33.0984 200.485 33.124 200.632 33.1457C200.784 33.1667 200.937 33.1936 201.091 33.2265C201.245 33.2594 201.39 33.3123 201.527 33.3854C201.663 33.4544 201.781 33.5557 201.88 33.6892C201.982 33.822 202.055 33.9995 202.096 34.2218C202.166 34.5949 202.088 34.9154 201.863 35.1833C201.641 35.4504 201.307 35.6259 200.858 35.7095ZM200.863 36.2631L199.863 30.9051L200.339 30.8162L201.339 36.1742L200.863 36.2631ZM204.44 32.3491C204.285 32.378 204.135 32.3669 203.99 32.316C203.849 32.2643 203.729 32.1819 203.63 32.069C203.531 31.9561 203.466 31.8202 203.437 31.6614C203.407 31.5027 203.419 31.3548 203.471 31.2177C203.523 31.0766 203.605 30.9565 203.718 30.8574C203.831 30.7583 203.967 30.6939 204.126 30.6643C204.284 30.6347 204.434 30.6457 204.575 30.6975C204.72 30.7484 204.842 30.8304 204.942 30.9433C205.04 31.0523 205.104 31.1862 205.134 31.3449C205.163 31.5037 205.152 31.6536 205.1 31.7947C205.049 31.9357 204.966 32.0558 204.853 32.1549C204.74 32.254 204.603 32.3188 204.44 32.3491ZM204.346 31.8431C204.445 31.8246 204.518 31.778 204.566 31.7034C204.614 31.6288 204.628 31.5419 204.61 31.4426C204.591 31.3434 204.545 31.27 204.47 31.2223C204.399 31.1699 204.315 31.1526 204.22 31.1703C204.125 31.1881 204.053 31.2343 204.006 31.3089C203.957 31.3796 203.942 31.4645 203.961 31.5637C203.979 31.6629 204.024 31.7387 204.096 31.7911C204.167 31.8435 204.25 31.8608 204.346 31.8431ZM206.67 34.6253C206.515 34.6542 206.365 34.6431 206.22 34.5922C206.079 34.5405 205.959 34.4581 205.86 34.3452C205.761 34.2323 205.696 34.0964 205.667 33.9377C205.637 33.7789 205.648 33.631 205.701 33.4939C205.752 33.3528 205.835 33.2327 205.948 33.1336C206.061 33.0345 206.197 32.9701 206.355 32.9405C206.514 32.9109 206.664 32.9219 206.805 32.9737C206.95 33.0246 207.072 33.1066 207.171 33.2195C207.27 33.3285 207.334 33.4624 207.363 33.6211C207.393 33.7799 207.382 33.9298 207.33 34.0709C207.278 34.2119 207.196 34.332 207.083 34.4311C206.97 34.5302 206.832 34.595 206.67 34.6253ZM206.575 34.1193C206.674 34.1008 206.748 34.0542 206.796 33.9796C206.847 33.9043 206.864 33.817 206.845 33.7177C206.828 33.6225 206.781 33.549 206.706 33.4974C206.63 33.4457 206.545 33.4288 206.45 33.4465C206.354 33.4643 206.283 33.5105 206.235 33.5851C206.188 33.6597 206.173 33.7447 206.19 33.8399C206.209 33.9391 206.254 34.0149 206.325 34.0673C206.397 34.1197 206.48 34.1371 206.575 34.1193ZM204.128 35.0378L206.024 30.3718L206.673 30.2507L204.777 34.9168L204.128 35.0378Z" fill="#826FFC"/>
<path d="M179.024 131.344C180.496 132.545 182.021 133.693 183.601 134.759C184.762 135.542 185.95 136.298 187.165 137C194.023 141.01 201.705 143.751 209.913 144.925C212.437 145.29 215.002 145.492 217.621 145.533C218.04 145.56 218.458 145.56 218.877 145.56C223.953 145.56 228.908 144.952 233.633 143.818C240.531 142.158 246.998 139.363 252.803 135.637C254.909 134.3 256.921 132.829 258.838 131.222C261.551 129.008 264.076 126.551 266.385 123.892C267.438 122.663 268.464 121.408 269.422 120.112C265.129 109.946 257.285 95.379 246.593 91.8149C229.758 86.1988 193.888 94.11 193.888 94.11C193.888 94.11 181.603 100.077 179.024 131.344Z" fill="white"/>
<path d="M187.164 136.997C194.022 141.006 201.704 143.747 209.912 144.922C212.437 145.286 215.002 145.489 217.621 145.529C218.039 145.556 218.458 145.556 218.876 145.556C223.953 145.556 228.907 144.949 233.632 143.814C240.531 142.154 246.998 139.359 252.803 135.633C254.909 134.297 256.92 132.825 258.837 131.219C258.729 114.762 257.487 99.7225 253.505 96.1314C251.507 94.3224 249.117 92.9049 246.593 91.8113C240.747 89.2868 234.213 88.4363 229.92 88.1527C227.071 87.9637 225.222 88.0313 225.222 88.0313C225.222 88.0313 221.401 88.1798 216.271 88.7468C214.853 88.9223 213.422 89.0978 211.924 89.3138C203.189 90.5693 192.956 93.0129 190.31 97.63C188.028 101.599 187.299 119.379 187.164 136.997Z" fill="white"/>
<path d="M206.794 55.0665L232.809 74.7634C232.809 74.7634 246.984 60.5341 241.22 52.4069C237.642 47.3443 230.406 44.9143 225.451 43.7937C224.884 43.6722 224.358 43.5642 223.858 43.4697C221.725 43.0512 220.294 42.9297 220.294 42.9297L220.281 43.0107C219.376 42.6732 210.358 36.1526 205.417 38.3126C198.628 41.2692 206.794 55.0665 206.794 55.0665Z" fill="black"/>
<path d="M230.11 77.8438L230.967 91.822C230.967 91.822 228.692 95.9949 220.557 97.1613C214.495 98.0307 212.272 96.7847 212.272 96.7847L212.686 89.6538L213.099 82.6985L227.665 78.5444L230.11 77.8438Z" fill="#F8CEC1"/>
<path d="M227.666 78.543C227.654 78.9264 227.536 79.3867 227.342 79.9173C224.643 87.0914 216.184 89.1218 212.686 89.6524L213.099 82.697L227.666 78.543Z" fill="black"/>
<path d="M208.029 51.0284C208.029 51.0284 201.769 69.004 205.258 78.5636C208.747 88.1232 217.529 85.901 222.711 83.6019C227.891 81.3042 230.112 77.8467 230.112 77.8467C230.112 77.8467 235.216 79.1509 238.188 74.2678C241.159 69.3861 238.702 64.2303 235.767 63.2313C232.832 62.2323 229.612 64.5436 229.612 64.5436L231.871 59.2852C231.873 59.2865 218.758 34.4581 208.029 51.0284Z" fill="#F8CEC1"/>
<path d="M230.558 72.1797C230.708 72.1797 230.861 72.1297 230.985 72.0271L237.005 67.1117C237.294 66.8768 237.335 66.4501 237.101 66.1612C236.862 65.8723 236.438 65.8318 236.15 66.0654L230.13 70.9808C229.841 71.2158 229.8 71.6424 230.035 71.9313C230.17 72.0946 230.363 72.1797 230.558 72.1797Z" fill="black"/>
<path d="M236.295 71.7427C236.61 71.7427 236.893 71.5186 236.956 71.196C237.026 70.8301 236.787 70.4764 236.42 70.4048L232.208 69.5908C231.846 69.5192 231.49 69.7582 231.417 70.1254C231.347 70.4913 231.586 70.845 231.951 70.9152L236.164 71.7292C236.208 71.74 236.251 71.7427 236.295 71.7427Z" fill="black"/>
<path d="M220.135 58.5525C220.293 58.5525 220.451 58.4972 220.579 58.3851C220.86 58.1394 220.889 57.7142 220.643 57.4334C218.548 55.0357 215.977 55.6594 214.911 56.3223C214.595 56.5194 214.498 56.9366 214.695 57.2525C214.894 57.5684 215.308 57.6642 215.623 57.4698C215.845 57.3362 217.805 56.2399 219.629 58.3217C219.761 58.4742 219.948 58.5525 220.135 58.5525Z" fill="black"/>
<path d="M206.556 57.9715C206.721 57.9715 206.887 57.9108 207.018 57.7893C208.348 56.5432 209.885 57.2763 209.949 57.3073C210.282 57.4734 210.686 57.337 210.853 57.0062C211.019 56.6741 210.888 56.2718 210.559 56.1031C210.462 56.0531 208.136 54.8988 206.095 56.8024C205.823 57.0575 205.808 57.4842 206.063 57.7569C206.196 57.9 206.375 57.9715 206.556 57.9715Z" fill="black"/>
<path d="M209.725 71.1283C209.802 71.1283 209.88 71.1148 209.957 71.0878C210.308 70.9596 210.488 70.5721 210.36 70.2211C208.583 65.3704 210.894 62.5597 210.994 62.4422C211.234 62.1587 211.201 61.7334 210.918 61.4918C210.636 61.2488 210.214 61.2798 209.971 61.562C209.849 61.7024 207.032 65.0559 209.092 70.6841C209.192 70.9595 209.45 71.1283 209.725 71.1283Z" fill="black"/>
<path d="M207.03 64.6853C207.343 64.6853 207.623 64.4666 207.689 64.148L208.368 60.8877C208.379 60.8418 208.383 60.7945 208.383 60.7486C208.383 60.4354 208.164 60.1546 207.846 60.0885C207.489 60.0129 207.123 60.2451 207.048 60.6109L206.369 63.8713C206.358 63.9172 206.354 63.9644 206.354 64.009C206.354 64.3222 206.572 64.603 206.891 64.6691C206.938 64.6799 206.984 64.6853 207.03 64.6853Z" fill="black"/>
<path d="M217.242 64.9213C217.554 64.9213 217.835 64.7025 217.901 64.3839L218.58 61.125C218.657 60.7591 218.422 60.4027 218.056 60.3271C217.699 60.2502 217.334 60.4851 217.258 60.8496L216.579 64.1085C216.502 64.4744 216.737 64.8308 217.103 64.9064C217.149 64.9172 217.195 64.9213 217.242 64.9213Z" fill="black"/>
<path d="M206.797 55.0659C206.797 55.0659 208.143 52.1633 211.628 51.9257C215.114 51.6881 217.299 54.0183 217.299 54.0183C217.299 54.0183 216.13 59.984 221.063 62.8124C225.996 65.6407 229.612 64.5431 229.612 64.5431L232.976 63.1067L235.19 57.9266L224.583 47.8149L211.289 41.8086L205.092 48.1686L206.797 55.0659Z" fill="black"/>
<path d="M213.584 76.4827C214.128 76.4827 217.348 76.345 218.604 73.1779C218.741 72.8309 218.571 72.4394 218.226 72.3017C217.88 72.164 217.487 72.3341 217.349 72.6811C216.353 75.1962 213.61 75.1314 213.556 75.1327C213.171 75.1327 212.871 75.4189 212.858 75.7834C212.846 76.156 213.137 76.4679 213.51 76.4814C213.519 76.4814 213.544 76.4827 213.584 76.4827Z" fill="black"/>
<path d="M216.084 98.246C225.236 98.246 232.2 91.9076 232.538 91.5958C232.811 91.3419 232.828 90.9167 232.574 90.6426C232.319 90.3686 231.895 90.3524 231.62 90.6048C231.531 90.6885 222.414 98.9764 211.799 96.3816C211.44 96.2925 211.072 96.5153 210.983 96.8771C210.896 97.2389 211.117 97.6047 211.479 97.6925C213.058 98.0786 214.6 98.246 216.084 98.246Z" fill="#F2F2F2"/>
<path d="M167.886 119.53C168.061 119.773 168.223 120.003 168.399 120.232C171.477 124.35 175.054 128.076 179.024 131.343C180.482 132.531 181.994 133.679 183.56 134.732L195.278 129.736L191.081 96.5703L167.886 119.53Z" fill="white"/>
</g>
<defs>
<linearGradient id="paint0_linear_53_1041" x1="136.997" y1="269.493" x2="217.779" y2="-7.49747" gradientUnits="userSpaceOnUse">
<stop stop-color="white"/>
<stop offset="1" stop-color="white" stop-opacity="0"/>
</linearGradient>
<linearGradient id="paint1_linear_53_1041" x1="71.6152" y1="187.938" x2="170.248" y2="36.9091" gradientUnits="userSpaceOnUse">
<stop stop-color="white"/>
<stop offset="1" stop-color="white" stop-opacity="0"/>
</linearGradient>
<clipPath id="clip0_53_1041">
<rect width="287" height="120" rx="10.0043" fill="white"/>
</clipPath>
<clipPath id="clip1_53_1041">
<rect width="180" height="167.474" fill="white" transform="matrix(-1 0 0 1 334.141 8)"/>
</clipPath>
</defs>
</svg>

<svg width="287" height="120" fill="none" xmlns="http://www.w3.org/2000/svg"><g clip-path="url(#a)"><rect width="287" height="120" rx="10.004" fill="#8E94E9"/><g clip-path="url(#b)" stroke-width=".586"><circle cx="123.903" cy="123.903" r="123.61" transform="scale(-1 1) rotate(-69.175 -63.162 463.407)" stroke="url(#c)"/><circle cx="88.502" cy="88.502" r="88.21" transform="scale(-1 1) rotate(-69.175 -55.102 420.018)" stroke="url(#d)"/></g><path d="m209.682 26.272 1.792 10.602a1.893 1.893 0 0 1-1.55 2.181l-5.064.856.605 3.58-2.956-3.182-11.992 2.027a1.893 1.893 0 0 1-2.182-1.55l-1.792-10.602a1.893 1.893 0 0 1 1.551-2.182l19.407-3.28a1.892 1.892 0 0 1 2.181 1.55z" fill="#F2F2F2"/><path d="M193.905 37.007a1.705 1.705 0 0 1-.825-.031 1.991 1.991 0 0 1-.705-.41l.372-.545c.147.145.307.255.481.33.174.074.37.09.588.05.231-.043.404-.127.52-.251a.496.496 0 0 0 .13-.462.527.527 0 0 0-.171-.319.805.805 0 0 0-.325-.16 2.365 2.365 0 0 0-.416-.084 11.166 11.166 0 0 1-.452-.075 1.978 1.978 0 0 1-.428-.148 1 1 0 0 1-.343-.288 1.179 1.179 0 0 1-.206-.51 1.085 1.085 0 0 1 .062-.658c.09-.198.23-.361.42-.491.189-.13.411-.218.665-.266a1.598 1.598 0 0 1 1.309.347l-.373.544a1.593 1.593 0 0 0-.428-.246.753.753 0 0 0-.414-.04c-.222.041-.385.117-.488.226-.103.106-.139.244-.107.415a.455.455 0 0 0 .165.29c.089.06.199.108.328.141.129.03.267.055.415.077.152.02.305.048.459.08.154.034.299.086.436.16a1 1 0 0 1 .352.303c.103.133.175.31.217.533.069.373-.009.694-.234.962-.221.267-.556.442-1.004.526zm.004.553-.999-5.358.476-.089 1 5.358-.477.09zm3.472-1.202a1.705 1.705 0 0 1-.825-.03 2.007 2.007 0 0 1-.705-.411l.373-.544c.146.145.306.255.481.329.174.074.37.091.588.05.23-.043.404-.126.52-.25a.496.496 0 0 0 .129-.462.521.521 0 0 0-.17-.32.809.809 0 0 0-.326-.16 2.347 2.347 0 0 0-.416-.083 11.612 11.612 0 0 1-.451-.076 1.978 1.978 0 0 1-.428-.148.989.989 0 0 1-.343-.287 1.167 1.167 0 0 1-.206-.51 1.077 1.077 0 0 1 .062-.659c.09-.197.23-.36.419-.49.19-.13.411-.219.665-.266a1.605 1.605 0 0 1 1.31.347l-.373.544a1.605 1.605 0 0 0-.428-.247.753.753 0 0 0-.414-.04c-.223.042-.385.117-.488.227-.103.105-.139.243-.107.414a.446.446 0 0 0 .165.29c.089.061.198.108.328.142.129.03.267.055.415.076.151.021.304.048.458.081.154.033.3.086.437.159a1 1 0 0 1 .352.304c.103.133.175.31.216.532.07.373-.008.694-.233.962-.221.267-.556.443-1.005.526zm.005.554-1-5.358.477-.09.999 5.359-.476.089zm3.472-1.203a1.703 1.703 0 0 1-.825-.03 1.99 1.99 0 0 1-.705-.411l.373-.544c.146.145.306.255.48.33.174.074.37.09.589.05.23-.043.403-.127.52-.251a.498.498 0 0 0 .129-.462.531.531 0 0 0-.17-.32.817.817 0 0 0-.326-.16 2.356 2.356 0 0 0-.416-.083 11.3 11.3 0 0 1-.451-.076 1.987 1.987 0 0 1-.429-.148 1.007 1.007 0 0 1-.343-.287 1.179 1.179 0 0 1-.206-.51 1.085 1.085 0 0 1 .062-.658c.091-.198.231-.361.42-.491.189-.13.411-.219.665-.266a1.6 1.6 0 0 1 1.309.347l-.373.544a1.59 1.59 0 0 0-.428-.247.753.753 0 0 0-.414-.04c-.222.042-.384.118-.487.227-.104.106-.14.244-.108.414a.455.455 0 0 0 .165.29c.09.061.199.109.329.142.128.03.267.055.414.077.152.02.305.048.459.08.154.033.299.086.436.16.136.068.254.17.353.303.102.133.175.31.216.533.07.373-.008.693-.233.961-.222.267-.556.443-1.005.526zm.005.554-1-5.358.476-.089 1 5.358-.476.09zm3.577-3.914a.86.86 0 0 1-.81-.28.833.833 0 0 1-.193-.408.807.807 0 0 1 .034-.443.873.873 0 0 1 .247-.36.838.838 0 0 1 .408-.194.835.835 0 0 1 .449.034c.145.05.267.132.367.245a.813.813 0 0 1 .192.402.841.841 0 0 1-.034.45.846.846 0 0 1-.66.554zm-.094-.506a.317.317 0 0 0 .22-.14.35.35 0 0 0 .044-.26.317.317 0 0 0-.14-.22.31.31 0 0 0-.25-.053.323.323 0 0 0-.259.393c.018.1.063.176.135.228.071.052.154.07.25.052zm2.324 2.782a.86.86 0 0 1-.81-.28.833.833 0 0 1-.193-.407.798.798 0 0 1 .034-.444.863.863 0 0 1 .247-.36.84.84 0 0 1 .407-.194.838.838 0 0 1 .45.034c.145.05.267.133.366.245a.796.796 0 0 1 .192.402.831.831 0 0 1-.033.45.85.85 0 0 1-.66.554zm-.095-.506a.319.319 0 0 0 .221-.14.337.337 0 0 0 .049-.261.33.33 0 0 0-.395-.271.31.31 0 0 0-.215.138.347.347 0 0 0-.045.255c.019.1.064.175.135.227a.31.31 0 0 0 .25.052zm-2.447.919 1.896-4.666.649-.121-1.896 4.666-.649.12z" fill="#826FFC"/><path d="M179.024 131.344a62.945 62.945 0 0 0 4.577 3.415 60.729 60.729 0 0 0 3.564 2.241 62.529 62.529 0 0 0 22.748 7.925 60.36 60.36 0 0 0 7.708.608c.419.027.837.027 1.256.027 5.076 0 10.031-.608 14.756-1.742a62.603 62.603 0 0 0 19.17-8.181 56.625 56.625 0 0 0 6.035-4.415 61.534 61.534 0 0 0 7.547-7.33 67.571 67.571 0 0 0 3.037-3.78c-4.293-10.166-12.137-24.733-22.829-28.297-16.835-5.616-52.705 2.295-52.705 2.295s-12.285 5.967-14.864 37.234z" fill="#fff"/><path d="M187.164 136.997a62.566 62.566 0 0 0 22.748 7.925c2.525.364 5.09.567 7.709.607.418.027.837.027 1.255.027 5.077 0 10.031-.607 14.756-1.742a62.598 62.598 0 0 0 19.171-8.181 56.604 56.604 0 0 0 6.034-4.414c-.108-16.457-1.35-31.496-5.332-35.088-1.998-1.809-4.388-3.226-6.912-4.32-5.846-2.524-12.38-3.375-16.673-3.658-2.849-.19-4.698-.122-4.698-.122s-3.821.149-8.951.716c-1.418.175-2.849.35-4.347.567-8.735 1.255-18.968 3.699-21.614 8.316-2.282 3.969-3.011 21.749-3.146 39.367z" fill="#fff"/><path d="m206.794 55.066 26.015 19.697s14.175-14.229 8.411-22.356c-3.578-5.063-10.814-7.493-15.769-8.613a67.15 67.15 0 0 0-1.593-.324c-2.133-.419-3.564-.54-3.564-.54l-.013.08c-.905-.337-9.923-6.857-14.864-4.697-6.789 2.956 1.377 16.753 1.377 16.753z" fill="#000"/><path d="m230.11 77.844.857 13.978s-2.275 4.173-10.41 5.34c-6.062.869-8.285-.377-8.285-.377l.414-7.131.413-6.956 14.566-4.154 2.445-.7z" fill="#F8CEC1"/><path d="M227.666 78.543c-.012.383-.13.844-.324 1.374-2.699 7.174-11.158 9.205-14.656 9.735l.413-6.955 14.567-4.154z" fill="#000"/><path d="M208.029 51.028s-6.26 17.976-2.771 27.536c3.489 9.56 12.271 7.337 17.453 5.038 5.18-2.298 7.401-5.755 7.401-5.755s5.104 1.304 8.076-3.58c2.971-4.88.514-10.037-2.421-11.036-2.935-.999-6.155 1.313-6.155 1.313l2.259-5.259c.002.002-13.113-24.827-23.842-8.257z" fill="#F8CEC1"/><path d="M230.558 72.18a.67.67 0 0 0 .427-.153l6.02-4.915a.677.677 0 0 0 .096-.95.679.679 0 0 0-.951-.097l-6.02 4.916a.676.676 0 0 0 .428 1.199z" fill="#000"/><path d="M236.295 71.743a.676.676 0 0 0 .125-1.338l-4.212-.814a.675.675 0 1 0-.257 1.324l4.213.814a.54.54 0 0 0 .131.014zM220.135 58.553a.673.673 0 0 0 .508-1.12c-2.095-2.397-4.666-1.774-5.732-1.11a.676.676 0 0 0 .712 1.147c.222-.134 2.182-1.23 4.006.852.132.152.319.23.506.23zM206.556 57.971c.165 0 .331-.06.462-.182 1.33-1.246 2.867-.513 2.931-.482a.676.676 0 0 0 .61-1.204c-.097-.05-2.423-1.204-4.464.7a.675.675 0 0 0 .461 1.169zM209.725 71.128a.675.675 0 0 0 .635-.907c-1.777-4.85.534-7.661.634-7.779a.676.676 0 0 0-1.023-.88c-.122.14-2.939 3.494-.879 9.122.1.276.358.444.633.444zM207.03 64.685a.674.674 0 0 0 .659-.537l.679-3.26a.675.675 0 1 0-1.32-.277l-.679 3.26a.674.674 0 0 0 .661.814zM217.242 64.921a.674.674 0 0 0 .659-.537l.679-3.259a.673.673 0 0 0-.524-.798.678.678 0 0 0-.798.523l-.679 3.259a.673.673 0 0 0 .663.812z" fill="#000"/><path d="M206.797 55.066s1.346-2.903 4.831-3.14c3.486-.238 5.671 2.092 5.671 2.092s-1.169 5.966 3.764 8.794c4.933 2.829 8.549 1.731 8.549 1.731l3.364-1.436 2.214-5.18-10.607-10.112-13.294-6.006-6.197 6.36 1.705 6.897zM213.584 76.483c.544 0 3.764-.138 5.02-3.305a.676.676 0 0 0-1.255-.497c-.996 2.515-3.739 2.45-3.793 2.452a.68.68 0 0 0-.698.65.676.676 0 0 0 .652.698c.009 0 .034.002.074.002z" fill="#000"/><path d="M216.084 98.246c9.152 0 16.116-6.338 16.454-6.65a.676.676 0 0 0-.918-.991c-.089.084-9.206 8.371-19.821 5.777a.676.676 0 0 0-.32 1.31c1.579.387 3.121.554 4.605.554z" fill="#F2F2F2"/><path d="M167.886 119.53c.175.243.337.473.513.702a64.134 64.134 0 0 0 10.625 11.111 61.881 61.881 0 0 0 4.536 3.389l11.718-4.996-4.197-33.166-23.195 22.96z" fill="#fff"/></g><defs><linearGradient id="c" x1="136.997" y1="269.493" x2="217.779" y2="-7.497" gradientUnits="userSpaceOnUse"><stop stop-color="#fff"/><stop offset="1" stop-color="#fff" stop-opacity="0"/></linearGradient><linearGradient id="d" x1="71.615" y1="187.938" x2="170.248" y2="36.909" gradientUnits="userSpaceOnUse"><stop stop-color="#fff"/><stop offset="1" stop-color="#fff" stop-opacity="0"/></linearGradient><clipPath id="a"><rect width="287" height="120" rx="10.004" fill="#fff"/></clipPath><clipPath id="b"><path fill="#fff" transform="matrix(-1 0 0 1 334.141 8)" d="M0 0h180v167.474H0z"/></clipPath></defs></svg>
